X:1
T:Engelska frn Eskilsminne
C:Stig Persson
R:Engelska
Z:Patrik Mnsson, Rstnga
O:Helsingborg, Skne
S:Frn CD Folkmusik runt Krnan
M:2/4
L:1/16
K:D
|: (D2F2) | FGFEFED2 | (DF) z2 F2 | FGFED :| |: d2d2 B2B2 | ABAG FED2 |
E2EE EFGA | B2AG F2D2 | d2d2 B2B2 | ABAGFED2 | E2EE EFGF | E2DC D4 :|
